packages/icons/src/SVG/sum-solid.svg

<!-- Generated by IcoMoon.io -->
<svg version="1.1" xmlns="http://www.w3.org/2000/svg" width="12" height="12" viewBox="0 0 12 12">
<title>sum-solid</title>
<path d="M6 9l2-3-2-3h3v1.625h3v-4.625h-12l4.125 6-4.125 6h12v-4.5h-3v1.5h-3z"></path>
</svg>

<svg width="12" height="12" viewBox="0 0 12 12" fill="none" xmlns="http://www.w3.org/2000/svg">
<path d="M6 9L8 6L6 3H9V4.625H12V0H0L4.125 6L0 12H12V7.5H9V9H6Z" fill="#4C505B"/>
</svg>
